X: 3
T: Sleepy Maggie
R: reel
M: 4/4
L: 1/8
K: Bdor
|:fB B/B/B fBce | fB B/B/B eAce | fB B/B/B fBce | fgaf eAce:||:f2 f/a/b fBce | f2 f/g/a eAce | f2 f/a/b fBce | fgaf eAce:||:fB B/B/B bB B/B/B | aB B/B/B eAce | fBbB aBgB | fgaf eAce:|


Tune 787	Setting 13921

